src/pos-icons/calendar-search.svg

<svg height="24" viewBox="0 0 24 24" width="24" xmlns="http://www.w3.org/2000/svg"><path d="m15.5 12c2.5 0 4.5 2 4.5 4.5 0 .88-.25 1.71-.69 2.4l3.08 3.1-1.39 1.39-3.12-3.07c-.69.43-1.51.68-2.38.68-2.5 0-4.5-2-4.5-4.5s2-4.5 4.5-4.5m0 2a2.5 2.5 0 0 0 -2.5 2.5 2.5 2.5 0 0 0 2.5 2.5 2.5 2.5 0 0 0 2.5-2.5 2.5 2.5 0 0 0 -2.5-2.5m3.5-6h-14v11h4.5c.31.75.76 1.42 1.31 2h-5.81c-1.11 0-2-.9-2-2v-14c0-1.11.89-2 2-2h1v-2h2v2h8v-2h2v2h1a2 2 0 0 1 2 2v8.03c-.5-.81-1.2-1.49-2-2.03z"/></svg>

<?xml version="1.0" encoding="UTF-8"?><!DOCTYPE svg PUBLIC "-//W3C//DTD SVG 1.1//EN" "http://www.w3.org/Graphics/SVG/1.1/DTD/svg11.dtd"><svg xmlns="http://www.w3.org/2000/svg" xmlns:xlink="http://www.w3.org/1999/xlink" version="1.1" id="mdi-calendar-search" width="24" height="24" viewBox="0 0 24 24"><path d="M15.5,12C18,12 20,14 20,16.5C20,17.38 19.75,18.21 19.31,18.9L22.39,22L21,23.39L17.88,20.32C17.19,20.75 16.37,21 15.5,21C13,21 11,19 11,16.5C11,14 13,12 15.5,12M15.5,14A2.5,2.5 0 0,0 13,16.5A2.5,2.5 0 0,0 15.5,19A2.5,2.5 0 0,0 18,16.5A2.5,2.5 0 0,0 15.5,14M19,8H5V19H9.5C9.81,19.75 10.26,20.42 10.81,21H5C3.89,21 3,20.1 3,19V5C3,3.89 3.89,3 5,3H6V1H8V3H16V1H18V3H19A2,2 0 0,1 21,5V13.03C20.5,12.22 19.8,11.54 19,11V8Z" /></svg>
